!!!OTL: 611. Bauernlied.
!!!ODT: 1784
!!!ARE: Europa, Mitteleuropa, Deutschland
!!!SCT: B0611
!!!TXL: @@DE
!!!YEM: Copyright 1995, estate of Helmut Schaffrath.
**kern	**text
*ICvox	*
*Ivox	*
*clefG2	*
*M2/4	*
*k[b-e-]	*
*B-:	*
!LO:TX:a:t=Luſtig und tempomäßig.	!
{16ffL	Wohl
16ddJ	.
=1	=1
8b-	auf
8b-	ʒum
8b-	Tanʒ!
16ccL	Was
16aJ	.
=2	=2
8f	iſt's
8f	denn
8f}	mehr?
{8d	Der
=3	=3
8e-	Tag
8d	war
8e-	ſau'r
8en	ge-
=4	=4
4f	-nung!
8r}	.
{8ff	Hol-
=5	=5
16ffqq	.
8ee-	-lah!
8cc	Wer
8cc	bringt
8ee-	uns
=6	=6
16ee-qq	.
8dd	Dir-
8b-	-nen
8b-}	her?
{8dd	Wer
=7	=7
8cc	ſchafft
16ccL	uns
16ee-J	.
8a	gu-
16a/L	-ten
16ccJ	.
=8	=8
4b-	Trunk?
8r}	.
{8dd	Wer
=9	=9
8cc	ſchafft
16ccL	uns
16ee-J	.
8a	gu-
16a/L	-ten
16ccJ	.
=10	=10
4b-	Trunk?
8r}	.
==	==
!!!AGN: Staende -, Bauern - Lied, Tanz
!!!GTL: Seemanns-, Bergmanns-, Bauern- und Handwerkerlieder
!!!ONB: ESAC (Essen Associative Code) Database: BOEHME
!!!AMT: simple duple
!!!AIN: vox
!!!EED: Helmut Schaffrath
!!!EEV: 1.0
!!Melodie 1784 von Beul.
!!@@COMMENT:"Gedicht von Overbeck ſum 17781 Melodie in "Sammlung vermiſchter Clavierſtücke von
!!verſchiedenen Tonkünſtlern. Nürnberg, 1784, S. 11."
!!@@END:
!!!Text: Ch. A. Overbeck
!!!URL-scan: https://archive.org/details/BoehmeVtLieder1895/page/n483/mode/2up
!!!ENC: Anna Maria Matuszewska
!!!EEV: 2024/15/07
*-	*-
